packages/bezier-icons/icons/face-grinning.svg

<svg width="24" height="24" viewBox="0 0 24 24" fill="none" xmlns="http://www.w3.org/2000/svg">
<path fill-rule="evenodd" clip-rule="evenodd" d="M4.00018 12.0001C4.00018 16.4111 7.58918 20.0001 12.0002 20.0001C16.4112 20.0001 20.0002 16.4111 20.0002 12.0001C20.0002 7.58912 16.4112 4.00012 12.0002 4.00012C7.58918 4.00012 4.00018 7.58912 4.00018 12.0001ZM2.00018 12.0001C2.00018 6.47812 6.47718 2.00012 12.0002 2.00012C17.5222 2.00012 22.0002 6.47812 22.0002 12.0001C22.0002 17.5221 17.5222 22.0001 12.0002 22.0001C6.47718 22.0001 2.00018 17.5221 2.00018 12.0001ZM6.286 13.4698H17.714C17.964 13.4698 18.158 13.7158 18.081 13.9538C17.253 16.5298 14.847 18.4038 12 18.4038C9.153 18.4038 6.747 16.5298 5.919 13.9538C5.842 13.7158 6.035 13.4698 6.286 13.4698ZM8.78628 11.6555C9.63128 11.6555 9.98428 11.0455 9.98428 9.55046C9.98428 8.05446 9.63128 7.44446 8.78628 7.44446C7.94128 7.44446 7.58728 8.05446 7.58728 9.55046C7.58728 11.0455 7.94128 11.6555 8.78628 11.6555ZM16.412 9.55046C16.412 11.0455 16.059 11.6555 15.214 11.6555C14.369 11.6555 14.015 11.0455 14.015 9.55046C14.015 8.05446 14.369 7.44446 15.214 7.44446C16.059 7.44446 16.412 8.05446 16.412 9.55046Z" fill="#313234"/>
</svg>

<svg xmlns="http://www.w3.org/2000/svg" width="24" height="24" fill="none" viewBox="0 0 24 24"><path fill="#313234" fill-rule="evenodd" d="M4 12c0 4.411 3.59 8 8 8s8-3.589 8-8-3.589-8-8-8-8 3.59-8 8m-2 0C2 6.478 6.477 2 12 2s10 4.478 10 10-4.478 10-10 10S2 17.522 2 12m4.286 1.47h11.428c.25 0 .444.246.367.484-.828 2.576-3.234 4.45-6.081 4.45s-5.253-1.874-6.081-4.45c-.077-.238.116-.484.367-.484m2.5-1.815c.845 0 1.198-.61 1.198-2.105s-.353-2.106-1.198-2.106-1.199.61-1.199 2.106.354 2.105 1.2 2.105m7.626-2.105c0 1.495-.353 2.105-1.198 2.105s-1.199-.61-1.199-2.105.354-2.106 1.199-2.106 1.198.61 1.198 2.106" clip-rule="evenodd"/></svg>
